static/img/kroki/4242c06f33dea12a138fbd035004fcc7.svg

<?xml version="1.0" encoding="us-ascii" standalone="no"?><svg xmlns="http://www.w3.org/2000/svg" xmlns:xlink="http://www.w3.org/1999/xlink" contentStyleType="text/css" height="374px" preserveAspectRatio="none" style="width:422px;height:374px;" version="1.1" viewBox="0 0 422 374" width="422px" zoomAndPan="magnify"><defs/><g><!--class kubernetes_resource--><g id="elem_kubernetes_resource"><rect codeLine="23" fill="#3D176E" height="39.7891" id="kubernetes_resource" rx="2.5" ry="2.5" style="stroke:#000D19;stroke-width:0.5;" width="216" x="7" y="167.79"/><ellipse cx="22" cy="187.6845" fill="#ADD1B2" rx="11" ry="11" style="stroke:#181818;stroke-width:1.0;"/><path d="M24.9688,193.3252 Q24.3906,193.622 23.75,193.7627 Q23.1094,193.9189 22.4063,193.9189 Q19.9063,193.9189 18.5781,192.2783 Q17.2656,190.622 17.2656,187.497 Q17.2656,184.372 18.5781,182.7158 Q19.9063,181.0595 22.4063,181.0595 Q23.1094,181.0595 23.75,181.2158 Q24.4063,181.372 24.9688,181.6689 L24.9688,184.3877 Q24.3438,183.8095 23.75,183.5439 Q23.1563,183.2627 22.5313,183.2627 Q21.1875,183.2627 20.5,184.3408 Q19.8125,185.4033 19.8125,187.497 Q19.8125,189.5908 20.5,190.6689 Q21.1875,191.7314 22.5313,191.7314 Q23.1563,191.7314 23.75,191.4658 Q24.3438,191.1845 24.9688,190.6064 L24.9688,193.3252 Z " fill="#000000"/><text fill="#D9B8FF" font-family="Helvetica" font-size="17" lengthAdjust="spacing" textLength="174" x="41" y="193.5698">kubernetes_resource</text></g><!--class kubernetes_service--><g id="elem_kubernetes_service"><rect codeLine="26" fill="#3D176E" height="39.7891" id="kubernetes_service" rx="2.5" ry="2.5" style="stroke:#000D19;stroke-width:0.5;" width="203" x="123.5" y="328.58"/><ellipse cx="138.5" cy="348.4745" fill="#ADD1B2" rx="11" ry="11" style="stroke:#181818;stroke-width:1.0;"/><path d="M141.4688,354.1152 Q140.8906,354.412 140.25,354.5527 Q139.6094,354.7089 138.9063,354.7089 Q136.4063,354.7089 135.0781,353.0683 Q133.7656,351.412 133.7656,348.287 Q133.7656,345.162 135.0781,343.5058 Q136.4063,341.8495 138.9063,341.8495 Q139.6094,341.8495 140.25,342.0058 Q140.9063,342.162 141.4688,342.4589 L141.4688,345.1777 Q140.8438,344.5995 140.25,344.3339 Q139.6563,344.0527 139.0313,344.0527 Q137.6875,344.0527 137,345.1308 Q136.3125,346.1933 136.3125,348.287 Q136.3125,350.3808 137,351.4589 Q137.6875,352.5214 139.0313,352.5214 Q139.6563,352.5214 140.25,352.2558 Q140.8438,351.9745 141.4688,351.3964 L141.4688,354.1152 Z " fill="#000000"/><text fill="#D9B8FF" font-family="Helvetica" font-size="17" lengthAdjust="spacing" textLength="161" x="157.5" y="354.3598">kubernetes_service</text></g><!--class load_balancer--><g id="elem_load_balancer"><rect codeLine="29" fill="#3D176E" height="39.7891" id="load_balancer" rx="2.5" ry="2.5" style="stroke:#000D19;stroke-width:0.5;" width="157" x="258.5" y="167.79"/><ellipse cx="273.5" cy="187.6845" fill="#ADD1B2" rx="11" ry="11" style="stroke:#181818;stroke-width:1.0;"/><path d="M276.4688,193.3252 Q275.8906,193.622 275.25,193.7627 Q274.6094,193.9189 273.9063,193.9189 Q271.4063,193.9189 270.0781,192.2783 Q268.7656,190.622 268.7656,187.497 Q268.7656,184.372 270.0781,182.7158 Q271.4063,181.0595 273.9063,181.0595 Q274.6094,181.0595 275.25,181.2158 Q275.9063,181.372 276.4688,181.6689 L276.4688,184.3877 Q275.8438,183.8095 275.25,183.5439 Q274.6563,183.2627 274.0313,183.2627 Q272.6875,183.2627 272,184.3408 Q271.3125,185.4033 271.3125,187.497 Q271.3125,189.5908 272,190.6689 Q272.6875,191.7314 274.0313,191.7314 Q274.6563,191.7314 275.25,191.4658 Q275.8438,191.1845 276.4688,190.6064 L276.4688,193.3252 Z " fill="#000000"/><text fill="#D9B8FF" font-family="Helvetica" font-size="17" lengthAdjust="spacing" textLength="115" x="292.5" y="193.5698">load_balancer</text></g><!--class resource--><g id="elem_resource"><rect codeLine="32" fill="#3D176E" height="39.7891" id="resource" rx="2.5" ry="2.5" style="stroke:#000D19;stroke-width:0.5;" width="113" x="168.5" y="7"/><ellipse cx="183.5" cy="26.8945" fill="#ADD1B2" rx="11" ry="11" style="stroke:#181818;stroke-width:1.0;"/><path d="M186.4688,32.5352 Q185.8906,32.832 185.25,32.9727 Q184.6094,33.1289 183.9063,33.1289 Q181.4063,33.1289 180.0781,31.4883 Q178.7656,29.832 178.7656,26.707 Q178.7656,23.582 180.0781,21.9258 Q181.4063,20.2695 183.9063,20.2695 Q184.6094,20.2695 185.25,20.4258 Q185.9063,20.582 186.4688,20.8789 L186.4688,23.5977 Q185.8438,23.0195 185.25,22.7539 Q184.6563,22.4727 184.0313,22.4727 Q182.6875,22.4727 182,23.5508 Q181.3125,24.6133 181.3125,26.707 Q181.3125,28.8008 182,29.8789 Q182.6875,30.9414 184.0313,30.9414 Q184.6563,30.9414 185.25,30.6758 Q185.8438,30.3945 186.4688,29.8164 L186.4688,32.5352 Z " fill="#000000"/><text fill="#D9B8FF" font-family="Helvetica" font-size="17" lengthAdjust="spacing" textLength="71" x="202.5" y="32.7798">resource</text></g><!--reverse link resource to kubernetes_resource--><g id="link_resource_kubernetes_resource"><path codeLine="35" d="M201.4807,61.847 C180.3407,92.367 149.49,136.9 128.32,167.46 " fill="none" id="resource-backto-kubernetes_resource" style="stroke:#FFAF37;stroke-width:2.0;"/><polygon fill="none" points="211.73,47.05,196.5484,58.4306,206.413,65.2635,211.73,47.05" style="stroke:#FFAF37;stroke-width:2.0;"/></g><!--reverse link kubernetes_resource to kubernetes_service--><g id="link_kubernetes_resource_kubernetes_service"><path codeLine="36" d="M138.5193,222.637 C159.6593,253.157 190.51,297.69 211.68,328.25 " fill="none" id="kubernetes_resource-backto-kubernetes_service" style="stroke:#FFAF37;stroke-width:2.0;"/><polygon fill="none" points="128.27,207.84,133.587,226.0535,143.4516,219.2206,128.27,207.84" style="stroke:#FFAF37;stroke-width:2.0;"/></g><!--reverse link load_balancer to kubernetes_service--><g id="link_load_balancer_kubernetes_service"><path codeLine="37" d="M313.1141,222.5485 C291.5841,253.0685 260.11,297.69 238.56,328.25 " fill="none" id="load_balancer-backto-kubernetes_service" style="stroke:#FFAF37;stroke-width:2.0;"/><polygon fill="none" points="323.49,207.84,308.2112,219.0898,318.0169,226.0071,323.49,207.84" style="stroke:#FFAF37;stroke-width:2.0;"/></g><!--reverse link resource to load_balancer--><g id="link_resource_load_balancer"><path codeLine="38" d="M248.8859,61.7585 C270.4159,92.2785 301.89,136.9 323.44,167.46 " fill="none" id="resource-backto-load_balancer" style="stroke:#FFAF37;stroke-width:2.0;"/><polygon fill="none" points="238.51,47.05,243.9831,65.2171,253.7888,58.2998,238.51,47.05" style="stroke:#FFAF37;stroke-width:2.0;"/></g><!--SRC=[XPBDRi8m48JlVWfBd2EHeXOYzK8ZLUq5LQLtj8dNO2MnexK3eZ_lNYWKEN42Hti-xyoil542ELQrs_CAgmp9CbieNGD1nUT4PfUQqX0VIGboCksApqQxcy02AkGlM6xHgHownCT6vOL6Q_cT9pr1Ngp9D5gSnZi2RGyIQkTHQGdMpfqZbJKElJ0YoMPITidkqD54nDC733130kcCZCTZ4ITTvARLrTuNOga-aSV-qXR6OH0piFYZhgOy4bx8eEY_FfZn3OHGUitllRltKoRIIAtxvGQ4sHrf2QNrRQn3GkFsDQP1AqncGavxuTSXcEN7rV6YEVnKZGxjYj2QXdBaNupzXB95sggsMXeGgmnAqFcXXoUqHrrEZzzH5FLPihuO0NrEmDgsWrXdKEiL-mK0]--></g></svg>

<svg xmlns="http://www.w3.org/2000/svg" width="422" height="374" viewBox="0 0 422 374"><rect width="216" height="39.789" x="7" y="167.79" fill="#3D176E" rx="2.5" ry="2.5" style="stroke:#000d19;stroke-width:.5"/><circle cx="22" cy="187.685" r="11" fill="#ADD1B2" style="stroke:#181818;stroke-width:1"/><path d="M24.969 193.325q-.578.297-1.219.438-.64.156-1.344.156-2.5 0-3.828-1.64-1.312-1.657-1.312-4.782t1.312-4.781q1.328-1.656 3.828-1.656.703 0 1.344.156.656.156 1.219.453v2.719q-.625-.578-1.219-.844-.594-.281-1.219-.281-1.343 0-2.031 1.078-.687 1.062-.687 3.156t.687 3.172q.688 1.062 2.031 1.062.625 0 1.219-.265.594-.281 1.219-.86z"/><text x="41" y="193.57" fill="#D9B8FF" font-family="Helvetica" font-size="17" textLength="174">kubernetes_resource</text><rect width="203" height="39.789" x="123.5" y="328.58" fill="#3D176E" rx="2.5" ry="2.5" style="stroke:#000d19;stroke-width:.5"/><circle cx="138.5" cy="348.474" r="11" fill="#ADD1B2" style="stroke:#181818;stroke-width:1"/><path d="M141.469 354.115q-.578.297-1.219.438-.64.156-1.344.156-2.5 0-3.828-1.64-1.312-1.657-1.312-4.782t1.312-4.781q1.328-1.656 3.828-1.656.703 0 1.344.156.656.156 1.219.453v2.719q-.625-.579-1.219-.844-.594-.281-1.219-.281-1.344 0-2.031 1.078-.687 1.062-.687 3.156t.687 3.172q.688 1.062 2.031 1.062.625 0 1.219-.265.594-.281 1.219-.86z"/><text x="157.5" y="354.36" fill="#D9B8FF" font-family="Helvetica" font-size="17" textLength="161">kubernetes_service</text><rect width="157" height="39.789" x="258.5" y="167.79" fill="#3D176E" rx="2.5" ry="2.5" style="stroke:#000d19;stroke-width:.5"/><circle cx="273.5" cy="187.685" r="11" fill="#ADD1B2" style="stroke:#181818;stroke-width:1"/><path d="M276.469 193.325q-.578.297-1.219.438-.64.156-1.344.156-2.5 0-3.828-1.64-1.312-1.657-1.312-4.782t1.312-4.781q1.328-1.656 3.828-1.656.703 0 1.344.156.656.156 1.219.453v2.719q-.625-.578-1.219-.844-.594-.281-1.219-.281-1.344 0-2.031 1.078-.687 1.062-.687 3.156t.687 3.172q.688 1.062 2.031 1.062.625 0 1.219-.265.594-.281 1.219-.86z"/><text x="292.5" y="193.57" fill="#D9B8FF" font-family="Helvetica" font-size="17" textLength="115">load_balancer</text><rect width="113" height="39.789" x="168.5" y="7" fill="#3D176E" rx="2.5" ry="2.5" style="stroke:#000d19;stroke-width:.5"/><circle cx="183.5" cy="26.895" r="11" fill="#ADD1B2" style="stroke:#181818;stroke-width:1"/><path d="M186.469 32.535q-.578.297-1.219.438-.64.156-1.344.156-2.5 0-3.828-1.64-1.312-1.657-1.312-4.782t1.312-4.781q1.328-1.656 3.828-1.656.703 0 1.344.156.656.156 1.219.453v2.719q-.625-.578-1.219-.844-.594-.281-1.219-.281-1.344 0-2.031 1.078-.687 1.062-.687 3.156t.687 3.172q.688 1.062 2.031 1.062.625 0 1.219-.265.594-.281 1.219-.86z"/><text x="202.5" y="32.78" fill="#D9B8FF" font-family="Helvetica" font-size="17" textLength="71">resource</text><path fill="none" d="M201.48 61.847c-21.14 30.52-51.99 75.053-73.16 105.613m83.41-120.41-15.182 11.38 9.865 6.833z" style="stroke:#ffaf37;stroke-width:2"/><g fill="none"><path d="M138.52 222.637c21.14 30.52 51.99 75.053 73.16 105.613" style="stroke:#ffaf37;stroke-width:2"/><path d="m128.27 207.84 5.317 18.214 9.865-6.833z" style="stroke:#ffaf37;stroke-width:2"/></g><path fill="none" d="M313.114 222.549c-21.53 30.52-53.004 75.141-74.554 105.701m84.93-120.41-15.279 11.25 9.806 6.917zM248.886 61.759c21.53 30.52 53.004 75.141 74.554 105.701M238.51 47.05l5.473 18.167 9.806-6.917z" style="stroke:#ffaf37;stroke-width:2"/></svg>
